X:286
T:Strop The Razor
N:2nd Setting
N:anon.
O:Ireland
B:Francis O'Neill: "The Dance Music of Ireland" (1907) no. 286
R:Double jig
Z:Transcribed by Frank Nordberg - http://www.musicaviva.com
N:Music Aviva - The Internet center for free sheet music downloads
M:6/8
L:1/8
K:G
G>AG GBG|AFD DFD|G>AG G2B|Add cAF|G>AG GBG|AFD DFD|FDE F2G|Add cA|:GDG G2A|FDF F2A|GDG G2B|Add cAF|GDG G2A|FDF FGA|cAG FGA|Add cA|:(G/A/B/^c/d/e/ f2)d|a(ba/g/) f2d|cAG FGA|Add cAF|\
(G/A/B/^c/d/e/ f2)d|a(ba/g/) f2d|cAG FGA|Add cA|:G3 BGG|AGG BGG|G>AG BGG|Add cAF|G>AG BGG|FDE F2G|FDE F2G|Add cA
